X: 1
T: the Cock o' the North
R: jig
Z: 1997 by John Chambers <jc:trillian.mit.edu>
M: 6/8
L: 1/8
K: G
dc \
|: "G"B2B BAG | Bcd "C"e2c | "G"B2B BAG | "D7"A3- Adc \
|  "G"B2B BAG | Bcd "C"e2c | "G"BGB "F"A=FA | "G"G3- G2 :|
|: "G"{f}g2d "C"e2d | "G"g2d "C"e2d | "G"B2B BAG | "D7"A3- A2f \
|  "G"g2d "C"e2d | "G"g2d "C"e2d | "G"BGB "F"A=FA | "G"G3- G2 :|
